X:69
T:Devon Steamboat
T:Steamboat
R:hp 32
M:4/4
L:1/8
Q:2/4=80
C:Trad arr. P J Headford
R:hp 32
Z:P J Headford
K:G
|:g2gBd2d2|BcdB G2GA|B2BBB2B2|dcBcA2A2|
g2gBd2d2|BcdB G2GA|B2BBd2g2|ecAFG4:|]
|:GABc d2G2|FGAB cBA2|GABcd2g2|agfe dcBA|
GABc d2G2|FGAB cBA2|GABc defg|ecAFG4:|]
W:Collected in Devon

